clinic/img/icons/arrow_r.svg

<svg width="24" height="24" viewBox="0 0 24 24" fill="none" xmlns="http://www.w3.org/2000/svg">
<path d="M10.2096 7.04038C9.95578 6.78654 9.54422 6.78654 9.29038 7.04038C9.03654 7.29422 9.03654 7.70578 9.29038 7.95962L10.2096 7.04038ZM13.7904 12.4596C14.0442 12.7135 14.4558 12.7135 14.7096 12.4596C14.9635 12.2058 14.9635 11.7942 14.7096 11.5404L13.7904 12.4596ZM9.29038 7.95962L13.7904 12.4596L14.7096 11.5404L10.2096 7.04038L9.29038 7.95962Z" fill="white"/>
<path d="M10.2096 16.9596C9.95578 17.2135 9.54422 17.2135 9.29038 16.9596C9.03654 16.7058 9.03654 16.2942 9.29038 16.0404L10.2096 16.9596ZM13.7904 11.5404C14.0442 11.2865 14.4558 11.2865 14.7096 11.5404C14.9635 11.7942 14.9635 12.2058 14.7096 12.4596L13.7904 11.5404ZM9.29038 16.0404L13.7904 11.5404L14.7096 12.4596L10.2096 16.9596L9.29038 16.0404Z" fill="white"/>
</svg>

<svg width="24" height="24" fill="none" xmlns="http://www.w3.org/2000/svg"><path d="M10.21 7.04a.65.65 0 10-.92.92l.92-.92zm3.58 5.42a.65.65 0 10.92-.92l-.92.92zm-4.5-4.5l4.5 4.5.92-.92-4.5-4.5-.92.92z" fill="#fff"/><path d="M10.21 16.96a.65.65 0 11-.92-.92l.92.92zm3.58-5.42a.65.65 0 11.92.92l-.92-.92zm-4.5 4.5l4.5-4.5.92.92-4.5 4.5-.92-.92z" fill="#fff"/></svg>
